X:1
T:Title
%%score { ( 1 3 ) | ( 2 4 ) }
L:1/8
M:4/4
K:Db
V:1 treble nm="Grand Piano"
V:3 treble 
V:2 bass 
V:4 bass 
V:1
 z4 z2[Q:1/4=100] DE | F2 B2 A2 DE | F2[K:bass] [G,CE]2 [F,D]2[K:treble] [A,DF][A,EG] | %3
 [DFA]4 [A,DF]4 |[M:3/4][K:bass] [CE]4- [G,CE]2 |[M:1/4][K:treble] DE |[M:4/4] F2 B2 A2 DE | %7
 F2 [CE]2 D2 FF | E4 B4 |[M:3/4] [A,A]6 |[M:1/4] [A,DF][A,EG] |[M:4/4] D2 z2 [Fd]4[K:bass] | %12
 [Gc]6 z2 | G4 [CB]4[K:bass] | A6[K:treble] z2 | [Fd]>[Fd] [Fd]>[Fd] c2 c>c | %16
 B>B d>d [FA]2 [FA]>[FA] | [GB]2 [Gd]2 [=Gd]2 [_Gc]2 |[M:3/4] d6 |] %19
V:2
 z4 z2 [D,F,][D,G,D] | [D,A,D]2 [D,G,D]2 [D,F,D]2 [F,A,][E,A,C] | [D,A,D]2 A,,2 D,2 D,D, | %3
 D,4 D,4 |[M:3/4] A,,6 |[M:1/4] [D,F,][D,G,D] |[M:4/4] [D,A,D]2 [D,G,D]2 [D,F,D]2 [F,A,][E,A,C] | %7
 [D,A,D]2 [A,,G,]2 [D,F,]2 [D,A,D][D,A,D] | [E,A,C]4 [E,=G,D]4 |[M:3/4] z2 z2 G2 |[M:1/4] D,D, | %11
[M:4/4] D,2 D,2 [D,A,]2 z2 | [E,A,]2 E,2 A,,2 [G,A,C][F,A,D] | [E,A,]2 z2 z4 | D6 z2 | %15
 [D,A,]>[D,A,] [D,A,]>[D,A,] [F,=A,F]2 [F,A,F]>[F,A,E] | %16
 [G,D]>[G,D] [G,B,D]>[G,B,G] [D,D]2 [D,D]>[D,D] | [G,D]2 [G,B,]2 [E,B,]2 [A,,A,]2 | %18
[M:3/4] A,2 z2 z2 |] %19
V:3
 x8 | x8 | x2[K:bass] x4[K:treble] x2 | x8 |[M:3/4][K:bass] A,4 z2 |[M:1/4][K:treble] x2 | %6
[M:4/4] x8 | x8 | x8 |[M:3/4] C4 z2 |[M:1/4] x2 |[M:4/4] [FA]2- [DFA]2 z2[K:bass] [D,A,]2 | %12
 z2 A,2 A,2 EF | z2 A,2 z2[K:bass] G,2 | z2 G,2 A,2[K:treble] A>A | x8 | x8 | x8 | %18
[M:3/4] F2 G2 F2 |] %19
V:4
 x8 | x8 | x8 | x8 |[M:3/4] x6 |[M:1/4] x2 |[M:4/4] x8 | x8 | x8 |[M:3/4] A,,6 |[M:1/4] x2 | %11
[M:4/4] x8 | x8 | C2- [E,C]2 [A,,A,]2 A,,2 | [D,F,]2 E,2 F,2 [D,F,D]>[D,F,D] | x8 | x8 | x8 | %18
[M:3/4] D,2- [D,-B,]2 [D,A,]2 |] %19

